src/topics/icons/cordova.svg

<svg height="245" preserveAspectRatio="xMidYMid" viewBox="0 0 256 245" width="256" xmlns="http://www.w3.org/2000/svg"><path d="m232.727273 244.363636h-41.454546l2.909091-34.909091h-20.363636l-2.909091 34.909091h-85.8181819l-2.9090909-34.909091h-20.3636364l2.9090909 34.909091h-41.4545454l-23.2727273-151.2727269 58.1818182-93.0909091h139.6363638l58.181818 93.0909091zm-46.545455-197.8181815h-37.402909l2.493818 17.4545455h-46.545454l2.493818-17.4545455h-37.4029092l-23.2727273 46.5454546 11.6363637 93.0909089h139.6363638l11.636363-93.0909089zm-20.363636 108.7418185c-3.213091 0-5.818182-9.690182-5.818182-21.643637 0-11.953454 2.605091-21.643636 5.818182-21.643636s5.818182 9.690182 5.818182 21.643636c0 11.953455-2.605091 21.643637-5.818182 21.643637zm-73.4545456 1.803636c-3.2130909 0-5.8181819-9.690182-5.8181819-21.643636 0-11.953455 2.605091-21.643637 5.8181819-21.643637s5.8181818 9.690182 5.8181818 21.643637c0 11.953454-2.6050909 21.643636-5.8181818 21.643636z" fill="#444"/></svg>

<?xml version="1.0" encoding="UTF-8" standalone="no"?>
<svg width="256px" height="245px" viewBox="0 0 256 245" version="1.1" xmlns="http://www.w3.org/2000/svg" xmlns:xlink="http://www.w3.org/1999/xlink" preserveAspectRatio="xMidYMid">
    <g>
        <path d="M232.727273,244.363636 L191.272727,244.363636 L194.181818,209.454545 L173.818182,209.454545 L170.909091,244.363636 L85.0909091,244.363636 L82.1818182,209.454545 L61.8181818,209.454545 L64.7272727,244.363636 L23.2727273,244.363636 L0,93.0909091 L58.1818182,0 L197.818182,0 L256,93.0909091 L232.727273,244.363636 Z M186.181818,46.5454545 L148.778909,46.5454545 L151.272727,64 L104.727273,64 L107.221091,46.5454545 L69.8181818,46.5454545 L46.5454545,93.0909091 L58.1818182,186.181818 L197.818182,186.181818 L209.454545,93.0909091 L186.181818,46.5454545 Z M165.818182,155.287273 C162.605091,155.287273 160,145.597091 160,133.643636 C160,121.690182 162.605091,112 165.818182,112 C169.031273,112 171.636364,121.690182 171.636364,133.643636 C171.636364,145.597091 169.031273,155.287273 165.818182,155.287273 Z M92.3636364,157.090909 C89.1505455,157.090909 86.5454545,147.400727 86.5454545,135.447273 C86.5454545,123.493818 89.1505455,113.803636 92.3636364,113.803636 C95.5767273,113.803636 98.1818182,123.493818 98.1818182,135.447273 C98.1818182,147.400727 95.5767273,157.090909 92.3636364,157.090909 Z" fill="#444444"></path>
    </g>
</svg>
